packages/calcite-ui-icons/icons/learning-steps-16.svg

<?xml version="1.0" encoding="UTF-8"?><svg id="icons" xmlns="http://www.w3.org/2000/svg" viewBox="0 0 16 16"><defs><style>.cls-1{fill:none;}</style></defs><rect class="cls-1" width="16" height="16"/><path d="M14,8v1h2v1h-2c-.55267,0-1-.44733-1-1v-1c0-.55273.44733-1,1-1h1v-1h-2c0-.55267.44733-1,1-1h1c.27637,0,.52637.11182.70728.29272s.28372.43091.28372.70728l.009,1c0,.55267-.44733,1-1,1h-1ZM1.9429,7.89795c-.00916.31848-.00452.63715.04034.95361.07092.49408.2204.96057.40546,1.40912l-.80374.44684c-.23138-.54382-.41553-1.11212-.50195-1.71436-.05072-.35742-.06036-.7168-.05377-1.07593-.59631-.1983-1.02924-.75433-1.02924-1.41724,0-.82843.67157-1.5,1.5-1.5s1.5.67157,1.5,1.5c0,.64008-.49265,1.18256-1.0571,1.39795ZM1,7h1v-1h-1v1ZM7.16113,1.97955c-.40125.05743-.78406.16742-1.15625.30109v-.97784c.32953-.09961.6662-.18262,1.01367-.23248.66016-.09375,1.32812-.09375,1.98828,0,.49457.0708.96283.21454,1.4176.38708.27264-.28125.65289-.4574,1.07556-.4574.82843,0,1.5.67157,1.5,1.5s-.67157,1.5-1.5,1.5-1.5-.75257-1.5-1.581c0-.04419.00928-.08575.013-.12897-.36884-.13776-.74805-.25317-1.14874-.31049-.28223-.04102-.56738-.06055-.85156-.06055s-.56934.01953-.85156.06055ZM11,2v1h1v-1h-1ZM13.18201,11h1.13843c-.69751,1.45319-1.88446,2.62482-3.33899,3.3161.00757.06097.01855.12091.01855.1839,0,.82843-.67157,1.5-1.5,1.5s-1.5-.67157-1.5-1.5.67157-1.5,1.5-1.5c.39301,0,.7478.15448,1.01526.40186,1.11041-.51923,2.04932-1.3465,2.66675-2.40186ZM10,14h-1v1h1v-1ZM11,9.55566v-.8399l-1.35364,1.28424h-3.20203c-.24512,0-.44434-.19922-.44434-.44434v-3.11133c0-.24512.19922-.44434.44434-.44434h1.55566l1-1h-2.55566c-.79688,0-1.44434.64746-1.44434,1.44434v3.11133c0,.79688.64746,1.44434,1.44434,1.44434h3.11133c.79688,0,1.44434-.64746,1.44434-1.44434ZM8.49609,7.7959l-.80273-.78711-.69922.71484,1.50977,1.48047,3.34961-3.35059-.70703-.70703-2.65039,2.64941ZM5,11h-1c-.55273,0-1,0-1,1h2v1h-.5c-.27643,0-.5.22461-.5.5,0,.27728.22357.5.5.5h.5v1h-2c0,1,.44727,1,1,1h1c.55267,0,1-.44733,1-1v-1c0-.18549-.06451-.34961-.15332-.5.08881-.14844.15332-.3125.15332-.5v-1c0-.55084-.44733-1-1-1ZM4.00488,1.53418v3.39941h.991V.05762l-1.9617.78809.37109.92773.59961-.23926Z"/></svg>

<svg xmlns="http://www.w3.org/2000/svg" viewBox="0 0 16 16"><path fill="none" d="M0 0h16v16H0z"/><path d="M14 8v1h2v1h-2a1 1 0 0 1-1-1V8a1 1 0 0 1 1-1h1V6h-2a1 1 0 0 1 1-1h1a.988.988 0 0 1 .991 1L16 7a1 1 0 0 1-1 1h-1zM1.943 7.898c-.01.318-.005.637.04.954.071.494.22.96.406 1.409l-.804.447a6.868 6.868 0 0 1-.502-1.715 6.759 6.759 0 0 1-.054-1.076A1.495 1.495 0 0 1 1.5 5 1.5 1.5 0 0 1 3 6.5c0 .64-.493 1.183-1.057 1.398zM1 7h1V6H1v1zm6.161-5.02a5.882 5.882 0 0 0-1.156.3v-.977c.33-.1.666-.183 1.014-.233a7.063 7.063 0 0 1 1.988 0c.494.071.963.215 1.417.387A1.5 1.5 0 1 1 11.5 4c-.828 0-1.5-.753-1.5-1.581 0-.044.01-.086.013-.129a5.507 5.507 0 0 0-1.149-.31 5.925 5.925 0 0 0-1.703 0zM11 2v1h1V2h-1zm2.182 9h1.138a7.074 7.074 0 0 1-3.339 3.316c.008.061.019.121.019.184A1.5 1.5 0 1 1 9.5 13c.393 0 .748.154 1.015.402A6.032 6.032 0 0 0 13.182 11zM10 14H9v1h1v-1zm1-4.444v-.84L9.646 10H6.444A.445.445 0 0 1 6 9.556V6.444C6 6.2 6.2 6 6.444 6H8l1-1H6.444C5.647 5 5 5.647 5 6.444v3.112C5 10.353 5.647 11 6.444 11h3.112C10.353 11 11 10.353 11 9.556zm-2.504-1.76l-.803-.787-.699.715 1.51 1.48 3.35-3.35-.708-.708-2.65 2.65zM5 11H4c-.553 0-1 0-1 1h2v1h-.5a.5.5 0 0 0 0 1H5v1H3c0 1 .447 1 1 1h1a1 1 0 0 0 1-1v-1a.975.975 0 0 0-.153-.5A.964.964 0 0 0 6 13v-1a1 1 0 0 0-1-1zm-.995-9.466v3.4h.99V.058l-1.96.788.37.927.6-.239z"/></svg>
